**kern	**kern
*staff2	*staff1
*clefF4	*clefG2
*k[f#c#g#]	*k[f#c#g#]
*M2/4	*M2/4
*A:	*A:
=-	=-
8EJ	8r
=145||	=145||
16c#LL	2r
16d	.
16c#	.
16dJJ	.
16c#LL	.
16d	.
16c#	.
16dJJ	.
=146	=146
16BLL	2r
16c#	.
16B	.
16c#JJ	.
16ALL	.
16B	.
16c#	.
16dJJ	.
=147	=147
16eLL	16cc#LL
16f#	16dd
16e	16cc#
16f#JJ	16ddJJ
16eLL	16cc#LL
16f#	16dd
16e	16cc#
16f#JJ	16ddJJ
=148	=148
16dLL	16bLL
16e	16cc#
16d	16b
16eJJ	16cc#JJ
16c#LL	16aLL
16d	16ff#
16c#	16ee
16dJJ	16ff#JJ
=149	=149
16BLL	16ddLL
16c#	16ee
16B	16dd
16c#JJ	16eeJJ
16ALL	16cc#LL
16f#	16dd
16e	16cc#
16f#JJ	16ddJJ
=150	=150
16dLL	16bLL
16e	16cc#
16d	16b
16eJJ	16cc#JJ
16c#LL	16aLL
16e	16ee
16c#	16a
16eJJ	16eeJJ
=151	=151
16BLL	16g#LL
16e	16ee
16B	16g#
16eJJ	16eeJJ
16BLL	16aLL
16f#	16dd#
16B	16a
16f#JJ	16dd#JJ
=152	=152
4e	16g#LL 16ee
.	16b
.	16g#
.	16bJJ
8r	8e
=	=
*-	*-
